modules/feathericon/icons/text-align-left.svg

<svg width="12" height="10" xmlns="http://www.w3.org/2000/svg"><path d="M0 9h8v1H0V9zm0-3h12v1H0V6zm0-3h8v1H0V3zm0-3h12v1H0V0z" fill="#000" fill-rule="evenodd"/></svg>

<?xml version="1.0" encoding="UTF-8"?>
<svg width="12px" height="10px" viewBox="0 0 12 10" version="1.1" xmlns="http://www.w3.org/2000/svg" xmlns:xlink="http://www.w3.org/1999/xlink">
    <!-- Generator: sketchtool 48.1 (47250) - http://www.bohemiancoding.com/sketch -->
    <title>text-align-left</title>
    <desc>Created with sketchtool.</desc>
    <defs></defs>
    <g id="text-edit" stroke="none" stroke-width="1" fill="none" fill-rule="evenodd">
        <g id="text-align-left" fill="#000000">
            <path d="M0,9 L8,9 L8,10 L0,10 L0,9 Z M0,6 L12,6 L12,7 L0,7 L0,6 Z M0,3 L8,3 L8,4 L0,4 L0,3 Z M0,0 L12,0 L12,1 L0,1 L0,0 Z" id="Shape"></path>
        </g>
    </g>
</svg>
